packages/gestalt-icons-android/vr-theme/ic_vr_sticker-board-small_gestalt.svg

<svg width="24" height="24" viewBox="0 0 24 24" fill="none" xmlns="http://www.w3.org/2000/svg">
<path fill-rule="evenodd" clip-rule="evenodd" d="M4 4C1.79086 4 0 5.79086 0 8V16C0 18.2091 1.79086 20 4 20H13V18H4C2.89543 18 2 17.1046 2 16V8C2 6.89543 2.89543 6 4 6H20C21.1046 6 22 6.89543 22 8V10C22 10.5523 21.5523 11 21 11H19C16.7909 11 15 12.7909 15 15V20H16.1716C16.9672 20 17.7303 19.6839 18.2929 19.1213L23.1213 14.2929C23.6839 13.7303 24 12.9672 24 12.1716V8C24 5.79086 22.2091 4 20 4H4ZM21.5858 13H19C17.8954 13 17 13.8954 17 15V17.5858L21.5858 13Z" fill="black"/>
<path fill-rule="evenodd" clip-rule="evenodd" d="M4 9C4 8.44772 4.44772 8 5 8H11C11.5523 8 12 8.44772 12 9V15C12 15.5523 11.5523 16 11 16H5C4.44772 16 4 15.5523 4 15V9ZM6 14V10H10V14H6Z" fill="black"/>
</svg>

<svg xmlns="http://www.w3.org/2000/svg" width="24" height="24"><path d="M4 4a4 4 0 0 0-4 4v8a4 4 0 0 0 4 4h9v-2H4a2 2 0 0 1-2-2V8c0-1.1.9-2 2-2h16a2 2 0 0 1 2 2v2a1 1 0 0 1-1 1h-2a4 4 0 0 0-4 4v5h1.17a3 3 0 0 0 2.12-.88l4.83-4.83a3 3 0 0 0 .88-2.12V8a4 4 0 0 0-4-4zm13 13.59V15c0-1.1.9-2 2-2h2.59zM4 15a1 1 0 0 0 1 1h6a1 1 0 0 0 1-1V9a1 1 0 0 0-1-1H5a1 1 0 0 0-1 1zm2-1v-4h4v4z"/></svg>
